X: 8
T: The walls of Liscarroll
C: anon.
O: Ireland
B: Francis O'Neill: "The Dance Music of Ireland" (1907) no. 8
R: Double jig
Z: Transcribed by Frank Nordberg - http://www.musicaviva.com
F: http://www.musicaviva.com/abc/tunes/ireland/oneill-1001/oneill-1001-000
8.abc
M: 6/8
L: 1/8
Q: 3/8=128
K: D
A|d>cA A>GE|G>EE D2E|G>EE c>EE|GAB =c2e|\
d>cA A>GE|G>EE D2E|G>EE =c>EE|D>ED D2:|
A|d>cd ecA|d>cd ecA|=c>dc cBA|G>AB =cGE|\
A>de fed|{f}e>dc dcA|G>EE =c>EE|D>ED D2:|
W:
W:
W: From Musica Viva - http://www.musicaviva.com
W: the Internet center for free sheet music downloads.


